components/ui-node-icon/src/union/union.small.svg

<svg width="16" height="16" viewBox="0 0 16 16" fill="none" xmlns="http://www.w3.org/2000/svg">
  <path fill-rule="evenodd" clip-rule="evenodd" d="M13 3H3V6H13V3ZM3 2C2.44772 2 2 2.44772 2 3V7H7V9H2V13C2 13.5523 2.44772 14 3 14H13C13.5523 14 14 13.5523 14 13V10C14 9.44772 13.5523 9 13 9H9V7H14V3C14 2.44772 13.5523 2 13 2H3ZM13 10H3V13H13V10Z" fill="currentColor"/>
</svg>

<svg xmlns="http://www.w3.org/2000/svg" width="16" height="16" fill="none" viewBox="0 0 16 16">
  <path fill="currentColor" fill-rule="evenodd" d="M13 3H3v3h10V3ZM3 2a1 1 0 0 0-1 1v4h5v2H2v4a1 1 0 0 0 1 1h10a1 1 0 0 0 1-1v-3a1 1 0 0 0-1-1H9V7h5V3a1 1 0 0 0-1-1H3Zm10 8H3v3h10v-3Z" clip-rule="evenodd"/>
</svg>
